icon/pk/full-selection.svg

<svg viewBox="0 0 48 48" fill="none" xmlns="http://www.w3.org/2000/svg" height="1em" width="1em">
  <path d="M48 0H0V48H48V0Z" fill="white" fill-opacity="0.01"/>
  <path d="M34 5H8C6.34315 5 5 6.34315 5 8V34C5 35.6569 6.34315 37 8 37H34C35.6569 37 37 35.6569 37 34V8C37 6.34315 35.6569 5 34 5Z" fill="#2F88FF" stroke="black" stroke-width="4" stroke-linejoin="round"/>
  <path d="M43.9998 13.002V42.0001C43.9998 43.1046 43.1044 44.0001 41.9998 44.0001H13.0034" stroke="black" stroke-width="4" stroke-linecap="round" stroke-linejoin="round"/>
  <path d="M13 20.4858L18.9997 26.0109L29 15.7192" stroke="white" stroke-width="4" stroke-linecap="round" stroke-linejoin="round"/>
</svg>

<svg width="48" height="48" fill="none" xmlns="http://www.w3.org/2000/svg"><path d="M48 0H0v48h48V0Z" fill="#fff" fill-opacity=".01"/><path d="M34 5H8a3 3 0 0 0-3 3v26a3 3 0 0 0 3 3h26a3 3 0 0 0 3-3V8a3 3 0 0 0-3-3Z" fill="#2F88FF" stroke="#000" stroke-width="4" stroke-linejoin="round"/><path d="M44 13.002V42a2 2 0 0 1-2 2H13.003" stroke="#000" stroke-width="4" stroke-linecap="round" stroke-linejoin="round"/><path d="m13 20.486 6 5.525 10-10.292" stroke="#fff" stroke-width="4" stroke-linecap="round" stroke-linejoin="round"/></svg>
